packages/nodes-base/nodes/Demio/demio.svg

<svg viewBox="45 55 310 310" xmlns="http://www.w3.org/2000/svg"><path d="M186.014 72.737c-5.011.543-9.553 1.267-9.99 1.592-.22.163-2.055.596-4.078.962-3.435.622-16.058 4.437-16.501 4.987-.11.136-1.189.591-2.398 1.011-2.083.723-10.409 4.656-12.987 6.134-3.401 1.951-8.416 5.034-8.591 5.282-.11.155-.65.516-1.199.801-1.337.694-5.62 3.794-8.147 5.895-1.124.935-2.64 2.193-3.37 2.797-2.798 2.315-14.9 14.608-15.474 15.717-.331.641-.763 1.166-.959 1.166-.196 0-.719.584-1.162 1.299-.443.714-1.169 1.687-1.613 2.161-.444.475-1.443 1.856-2.219 3.071-.777 1.214-1.597 2.321-1.823 2.461-.225.139-.761.941-1.19 1.783-.429.841-1.011 1.773-1.293 2.07-.282.298-1.042 1.529-1.689 2.735-.647 1.207-1.571 2.778-2.055 3.49-.484.713-1.213 2.108-1.621 3.1-.408.991-.85 1.804-.982 1.804-.132.001-.737 1.216-1.344 2.699a127.76 127.76 0 0 1-2.458 5.525c-.744 1.554-1.353 3.086-1.353 3.402 0 .317-.352 1.233-.782 2.036-.431.804-1.251 3.139-1.823 5.189-.572 2.051-1.207 4.088-1.41 4.528-.573 1.236-1.409 4.801-2.157 9.19-.374 2.198-.848 4.356-1.052 4.796-1.77 3.802-3.04 113.303-1.423 122.672 1.257 7.287 4.856 12.927 12.079 18.934 3.185 2.648 8.829 4.7 14.425 5.244 5.107.497 92.915.503 103.422.008 8.183-.386 16.956-1.328 18.382-1.974.439-.199 1.968-.57 3.396-.824 3.535-.628 9.301-2.031 9.791-2.382.219-.157 1.838-.697 3.596-1.198 1.758-.502 3.736-1.155 4.396-1.451.659-.296 2.723-1.095 4.586-1.775 1.863-.681 3.481-1.363 3.596-1.517.115-.154 1.288-.707 2.607-1.228 1.319-.522 2.847-1.232 3.396-1.578.55-.347 2.168-1.222 3.597-1.945 1.428-.724 3.856-2.113 5.394-3.087a287.642 287.642 0 0 1 4.896-3.027c1.153-.69 2.097-1.421 2.097-1.625 0-.204.188-.37.417-.37.229 0 1.421-.765 2.649-1.699a141.244 141.244 0 0 1 3.079-2.291c.467-.325 2.287-1.832 4.045-3.348 7.841-6.76 14.897-14.283 20.853-22.233.906-1.209 1.979-2.75 2.385-3.425.406-.676 1.625-2.564 2.709-4.196 1.083-1.633 2.49-3.999 3.125-5.26.635-1.26 1.295-2.378 1.466-2.484.171-.106.915-1.592 1.653-3.303.738-1.71 1.455-3.2 1.594-3.31.138-.11.756-1.548 1.373-3.197.616-1.648 1.283-3.205 1.482-3.459.373-.479 2.321-6.36 2.321-7.008 0-.201.35-1.133.777-2.07.427-.938 1.256-4.12 1.841-7.071.585-2.952 1.217-5.726 1.404-6.166 1.588-3.739 2.474-23.654 1.55-34.843-.644-7.801-3.395-22.204-4.792-25.097-.213-.439-.82-2.238-1.349-3.996-.992-3.295-4.181-11.434-4.619-11.788-.136-.11-.561-1.009-.944-1.998-.383-.989-1.003-2.358-1.378-3.041a363.68 363.68 0 0 1-2.231-4.196c-.852-1.624-1.681-3.043-1.842-3.153-.161-.11-.614-.829-1.005-1.598-.392-.769-1.496-2.5-2.454-3.847-.957-1.347-1.741-2.641-1.741-2.877 0-.236-.241-.573-.536-.749-.295-.175-.875-.859-1.289-1.518-2.571-4.098-14.001-16.5-19.369-21.017-4.082-3.435-6.643-5.456-7.479-5.904a7.471 7.471 0 0 1-1.463-1.074c-.878-.878-7.699-5.372-8.153-5.372-.206 0-.561-.225-.79-.5-.228-.276-1.644-1.124-3.146-1.885-1.501-.761-2.825-1.515-2.941-1.677-.116-.161-1.555-.862-3.197-1.557-1.642-.694-3.18-1.419-3.417-1.61-.237-.191-1.675-.816-3.196-1.388-1.522-.573-3.716-1.475-4.876-2.006-1.16-.531-2.26-.965-2.443-.965-.184 0-2.123-.602-4.31-1.337-2.188-.735-6.033-1.742-8.546-2.238-2.513-.496-4.929-1.066-5.368-1.266-3.1-1.41-29.712-2.48-38.362-1.543m21.408 46.586c3.502.597 11.586 3.514 13.157 4.747.33.258 1.463.963 2.517 1.565 2.322 1.326 9.521 8.152 10.729 10.173.478.8 1.189 1.814 1.58 2.254 1.463 1.646 4.354 8.1 5.193 11.588.475 1.978 1.065 4.029 1.312 4.556.68 1.459.631 51.261-.052 51.488-.275.092-.499.558-.499 1.035 0 7.229-9.675 22.237-17.172 26.638-.936.549-2.029 1.302-2.429 1.672-.4.371-2.043 1.246-3.65 1.947-1.608.7-3.103 1.41-3.323 1.579-4.574 3.514-23.807 2.909-32.061-1.008-1.614-.766-3.079-1.393-3.257-1.393-.177 0-.648-.36-1.045-.799-.398-.44-.879-.8-1.07-.8-.653 0-3.705-2.197-4.856-3.496-.632-.714-1.401-1.299-1.708-1.299-.307 0-.558-.143-.558-.319 0-.175-.675-1.031-1.499-1.9-2.217-2.34-4.656-5.726-5.899-8.191-.604-1.197-1.228-2.267-1.386-2.377-.415-.288-1.812-4.227-2.409-6.793-.282-1.209-.653-2.291-.825-2.404-1.191-.783-1.617-50.057-.466-53.94 2.851-9.621 2.728-9.294 5.092-13.572.785-1.42 1.556-2.679 1.713-2.797.158-.118.791-.959 1.408-1.869 1.195-1.761 5.312-5.927 8.239-8.335 1.619-1.332 2.477-1.87 6.174-3.872 7.636-4.135 17.759-5.661 27.05-4.078m-14.415 14.587c-3.653.969-5.667 1.685-6.178 2.195-.307.307-.665.558-.795.558-.35 0-3.383 2.047-4.736 3.197-2.173 1.846-5.719 6.641-6.675 9.025-.521 1.3-1.095 2.466-1.277 2.59-1.441.991-2.355 44.928-1.096 52.686 1.478 9.111 9.321 18.2 17.96 20.813 1.648.499 3.429 1.107 3.957 1.353 1.296.602 10.537.585 11.271-.021.306-.253 1.244-.589 2.085-.746 1.998-.373 4.933-1.496 5.786-2.214.373-.313 1.127-.773 1.676-1.023 4.096-1.861 11.189-11.174 11.189-14.689 0-.316.176-.634.392-.708 1.777-.604 1.779-54.279.002-54.279-.162 0-.403-.542-.535-1.205-.328-1.636-2.226-5.588-2.685-5.588-.204 0-.371-.286-.371-.635 0-.966-6.47-7.156-8.342-7.983-.907-.399-1.648-.847-1.648-.995 0-.368-3.153-1.542-5.914-2.202-2.593-.619-11.895-.705-14.066-.129m10.973 27.778c3.089 2.359 3.013 1.807 3.013 21.98v17.86l-1.016 1.734c-2.654 4.528-9.599 4.385-12.05-.249l-.92-1.74v-17.732c0-19.722-.031-19.472 2.646-21.57 2.97-2.329 5.533-2.416 8.327-.283m65.79 55.723c3.829 2.727 4.95 6.8 2.935 10.663-.315.603-.573 1.327-.575 1.609-.006 1.408-3.042 9.02-4.975 12.475-2.169 3.877-3.594 6.142-4.438 7.052-.538.581-.979 1.207-.979 1.391 0 .938-10.79 11.864-14.186 14.365-3.174 2.337-9.438 6.363-9.899 6.363-.202 0-.9.379-1.551.843-.651.464-2.562 1.374-4.246 2.022-1.683.648-3.246 1.328-3.472 1.51-.737.594-10.299 3.283-14.398 4.049-8.227 1.539-22.502 1.399-30.37-.295a413.861 413.861 0 0 0-3.196-.681 2.975 2.975 0 0 1-.8-.32c-.219-.134-1.902-.629-3.739-1.102-1.837-.473-3.995-1.191-4.795-1.597-.801-.405-2.714-1.232-4.253-1.836-1.538-.605-3.067-1.319-3.396-1.587-.33-.268-1.67-1.009-2.978-1.646-1.308-.637-2.694-1.466-3.08-1.841-.386-.376-1.429-1.054-2.317-1.507-.889-.453-1.615-.972-1.615-1.154 0-.182-.35-.493-.778-.691-2.639-1.225-11.242-9.9-15.416-15.545-1.305-1.766-5.385-8.435-5.385-8.804 0-.128-.54-1.322-1.201-2.654-5.25-10.582-5.176-17.183.215-19.284 4.739-1.846 8.566.514 10.16 6.265 1.038 3.748 3.212 8.729 5.545 12.707 3.117 5.315 12.606 15.565 14.41 15.565.243 0 .442.172.442.383 0 .211.854.87 1.898 1.465 1.044.595 2.257 1.389 2.697 1.765 1.046.893 8.848 4.654 10.39 5.009.659.151 1.93.601 2.825.999 5.355 2.382 25.756 3.641 33.139 2.045 4.764-1.03 7.6-1.762 7.992-2.062.219-.169 1.388-.622 2.597-1.006 2.622-.833 9.685-4.33 11.426-5.657.68-.519 1.415-.943 1.632-.943.217 0 .92-.534 1.561-1.187.641-.654 1.353-1.193 1.582-1.199.824-.022 9.881-9.227 11.216-11.4.405-.659.861-1.29 1.012-1.402.28-.205 2.506-3.99 3.641-6.19 1.034-2.004 1.896-4.19 1.896-4.809 0-.322.153-.586.34-.586.188 0 .65-1.214 1.029-2.697 1.708-6.693 1.729-6.732 4.647-8.662 2.425-1.605 4.744-1.673 6.811-.201" fill="#00bf6f" fill-rule="evenodd"/></svg>

<svg id="svg" version="1.1" viewBox="45 55 310 310" xmlns="http://www.w3.org/2000/svg" xmlns:xlink="http://www.w3.org/1999/xlink" ><g id="svgg"><path id="path0" d="" stroke="none" fill="#000000" fill-rule="evenodd"></path><path id="path1" d="" stroke="none" fill="#008080" fill-rule="evenodd"></path><path id="path2" d="M186.014 72.737 C 181.003 73.280,176.461 74.004,176.024 74.329 C 175.804 74.492,173.969 74.925,171.946 75.291 C 168.511 75.913,155.888 79.728,155.445 80.278 C 155.335 80.414,154.256 80.869,153.047 81.289 C 150.964 82.012,142.638 85.945,140.060 87.423 C 136.659 89.374,131.644 92.457,131.469 92.705 C 131.359 92.860,130.819 93.221,130.270 93.506 C 128.933 94.200,124.650 97.300,122.123 99.401 C 120.999 100.336,119.483 101.594,118.753 102.198 C 115.955 104.513,103.853 116.806,103.279 117.915 C 102.948 118.556,102.516 119.081,102.320 119.081 C 102.124 119.081,101.601 119.665,101.158 120.380 C 100.715 121.094,99.989 122.067,99.545 122.541 C 99.101 123.016,98.102 124.397,97.326 125.612 C 96.549 126.826,95.729 127.933,95.503 128.073 C 95.278 128.212,94.742 129.014,94.313 129.856 C 93.884 130.697,93.302 131.629,93.020 131.926 C 92.738 132.224,91.978 133.455,91.331 134.661 C 90.684 135.868,89.760 137.439,89.276 138.151 C 88.792 138.864,88.063 140.259,87.655 141.251 C 87.247 142.242,86.805 143.055,86.673 143.055 C 86.541 143.056,85.936 144.271,85.329 145.754 C 84.721 147.238,83.615 149.724,82.871 151.279 C 82.127 152.833,81.518 154.365,81.518 154.681 C 81.518 154.998,81.166 155.914,80.736 156.717 C 80.305 157.521,79.485 159.856,78.913 161.906 C 78.341 163.957,77.706 165.994,77.503 166.434 C 76.930 167.670,76.094 171.235,75.346 175.624 C 74.972 177.822,74.498 179.980,74.294 180.420 C 72.524 184.222,71.254 293.723,72.871 303.092 C 74.128 310.379,77.727 316.019,84.950 322.026 C 88.135 324.674,93.779 326.726,99.375 327.270 C 104.482 327.767,192.290 327.773,202.797 327.278 C 210.980 326.892,219.753 325.950,221.179 325.304 C 221.618 325.105,223.147 324.734,224.575 324.480 C 228.110 323.852,233.876 322.449,234.366 322.098 C 234.585 321.941,236.204 321.401,237.962 320.900 C 239.720 320.398,241.698 319.745,242.358 319.449 C 243.017 319.153,245.081 318.354,246.944 317.674 C 248.807 316.993,250.425 316.311,250.540 316.157 C 250.655 316.003,251.828 315.450,253.147 314.929 C 254.466 314.407,255.994 313.697,256.543 313.351 C 257.093 313.004,258.711 312.129,260.140 311.406 C 261.568 310.682,263.996 309.293,265.534 308.319 C 267.073 307.345,269.276 305.983,270.430 305.292 C 271.583 304.602,272.527 303.871,272.527 303.667 C 272.527 303.463,272.715 303.297,272.944 303.297 C 273.173 303.297,274.365 302.532,275.593 301.598 C 276.820 300.664,278.206 299.633,278.672 299.307 C 279.139 298.982,280.959 297.475,282.717 295.959 C 290.558 289.199,297.614 281.676,303.570 273.726 C 304.476 272.517,305.549 270.976,305.955 270.301 C 306.361 269.625,307.580 267.737,308.664 266.105 C 309.747 264.472,311.154 262.106,311.789 260.845 C 312.424 259.585,313.084 258.467,313.255 258.361 C 313.426 258.255,314.170 256.769,314.908 255.058 C 315.646 253.348,316.363 251.858,316.502 251.748 C 316.640 251.638,317.258 250.200,317.875 248.551 C 318.491 246.903,319.158 245.346,319.357 245.092 C 319.730 244.613,321.678 238.732,321.678 238.084 C 321.678 237.883,322.028 236.951,322.455 236.014 C 322.882 235.076,323.711 231.894,324.296 228.943 C 324.881 225.991,325.513 223.217,325.700 222.777 C 327.288 219.038,328.174 199.123,327.250 187.934 C 326.606 180.133,323.855 165.730,322.458 162.837 C 322.245 162.398,321.638 160.599,321.109 158.841 C 320.117 155.546,316.928 147.407,316.490 147.053 C 316.354 146.943,315.929 146.044,315.546 145.055 C 315.163 144.066,314.543 142.697,314.168 142.014 C 313.793 141.330,312.789 139.442,311.937 137.818 C 311.085 136.194,310.256 134.775,310.095 134.665 C 309.934 134.555,309.481 133.836,309.090 133.067 C 308.698 132.298,307.594 130.567,306.636 129.220 C 305.679 127.873,304.895 126.579,304.895 126.343 C 304.895 126.107,304.654 125.770,304.359 125.594 C 304.064 125.419,303.484 124.735,303.070 124.076 C 300.499 119.978,289.069 107.576,283.701 103.059 C 279.619 99.624,277.058 97.603,276.222 97.155 C 275.763 96.910,275.105 96.426,274.759 96.081 C 273.881 95.203,267.060 90.709,266.606 90.709 C 266.400 90.709,266.045 90.484,265.816 90.209 C 265.588 89.933,264.172 89.085,262.670 88.324 C 261.169 87.563,259.845 86.809,259.729 86.647 C 259.613 86.486,258.174 85.785,256.532 85.090 C 254.890 84.396,253.352 83.671,253.115 83.480 C 252.878 83.289,251.440 82.664,249.919 82.092 C 248.397 81.519,246.203 80.617,245.043 80.086 C 243.883 79.555,242.783 79.121,242.600 79.121 C 242.416 79.121,240.477 78.519,238.290 77.784 C 236.102 77.049,232.257 76.042,229.744 75.546 C 227.231 75.050,224.815 74.480,224.376 74.280 C 221.276 72.870,194.664 71.800,186.014 72.737 M207.422 119.323 C 210.924 119.920,219.008 122.837,220.579 124.070 C 220.909 124.328,222.042 125.033,223.096 125.635 C 225.418 126.961,232.617 133.787,233.825 135.808 C 234.303 136.608,235.014 137.622,235.405 138.062 C 236.868 139.708,239.759 146.162,240.598 149.650 C 241.073 151.628,241.663 153.679,241.910 154.206 C 242.590 155.665,242.541 205.467,241.858 205.694 C 241.583 205.786,241.359 206.252,241.359 206.729 C 241.359 213.958,231.684 228.966,224.187 233.367 C 223.251 233.916,222.158 234.669,221.758 235.039 C 221.358 235.410,219.715 236.285,218.108 236.986 C 216.500 237.686,215.005 238.396,214.785 238.565 C 210.211 242.079,190.978 241.474,182.724 237.557 C 181.110 236.791,179.645 236.164,179.467 236.164 C 179.290 236.164,178.819 235.804,178.422 235.365 C 178.024 234.925,177.543 234.565,177.352 234.565 C 176.699 234.565,173.647 232.368,172.496 231.069 C 171.864 230.355,171.095 229.770,170.788 229.770 C 170.481 229.770,170.230 229.627,170.230 229.451 C 170.230 229.276,169.555 228.420,168.731 227.551 C 166.514 225.211,164.075 221.825,162.832 219.360 C 162.228 218.163,161.604 217.093,161.446 216.983 C 161.031 216.695,159.634 212.756,159.037 210.190 C 158.755 208.981,158.384 207.899,158.212 207.786 C 157.021 207.003,156.595 157.729,157.746 153.846 C 160.597 144.225,160.474 144.552,162.838 140.274 C 163.623 138.854,164.394 137.595,164.551 137.477 C 164.709 137.359,165.342 136.518,165.959 135.608 C 167.154 133.847,171.271 129.681,174.198 127.273 C 175.817 125.941,176.675 125.403,180.372 123.401 C 188.008 119.266,198.131 117.740,207.422 119.323 M193.007 133.910 C 189.354 134.879,187.340 135.595,186.829 136.105 C 186.522 136.412,186.164 136.663,186.034 136.663 C 185.684 136.663,182.651 138.710,181.298 139.860 C 179.125 141.706,175.579 146.501,174.623 148.885 C 174.102 150.185,173.528 151.351,173.346 151.475 C 171.905 152.466,170.991 196.403,172.250 204.161 C 173.728 213.272,181.571 222.361,190.210 224.974 C 191.858 225.473,193.639 226.081,194.167 226.327 C 195.463 226.929,204.704 226.912,205.438 226.306 C 205.744 226.053,206.682 225.717,207.523 225.560 C 209.521 225.187,212.456 224.064,213.309 223.346 C 213.682 223.033,214.436 222.573,214.985 222.323 C 219.081 220.462,226.174 211.149,226.174 207.634 C 226.174 207.318,226.350 207.000,226.566 206.926 C 228.343 206.322,228.345 152.647,226.568 152.647 C 226.406 152.647,226.165 152.105,226.033 151.442 C 225.705 149.806,223.807 145.854,223.348 145.854 C 223.144 145.854,222.977 145.568,222.977 145.219 C 222.977 144.253,216.507 138.063,214.635 137.236 C 213.728 136.837,212.987 136.389,212.987 136.241 C 212.987 135.873,209.834 134.699,207.073 134.039 C 204.480 133.420,195.178 133.334,193.007 133.910 M203.980 161.688 C 207.069 164.047,206.993 163.495,206.993 183.668 L 206.993 201.528 205.977 203.262 C 203.323 207.790,196.378 207.647,193.927 203.013 L 193.007 201.273 193.007 183.541 C 193.007 163.819,192.976 164.069,195.653 161.971 C 198.623 159.642,201.186 159.555,203.980 161.688 M269.770 217.411 C 273.599 220.138,274.720 224.211,272.705 228.074 C 272.390 228.677,272.132 229.401,272.130 229.683 C 272.124 231.091,269.088 238.703,267.155 242.158 C 264.986 246.035,263.561 248.300,262.717 249.210 C 262.179 249.791,261.738 250.417,261.738 250.601 C 261.738 251.539,250.948 262.465,247.552 264.966 C 244.378 267.303,238.114 271.329,237.653 271.329 C 237.451 271.329,236.753 271.708,236.102 272.172 C 235.451 272.636,233.540 273.546,231.856 274.194 C 230.173 274.842,228.610 275.522,228.384 275.704 C 227.647 276.298,218.085 278.987,213.986 279.753 C 205.759 281.292,191.484 281.152,183.616 279.458 C 182.078 279.126,180.639 278.820,180.420 278.777 C 180.200 278.734,179.840 278.590,179.620 278.457 C 179.401 278.323,177.718 277.828,175.881 277.355 C 174.044 276.882,171.886 276.164,171.086 275.758 C 170.285 275.353,168.372 274.526,166.833 273.922 C 165.295 273.317,163.766 272.603,163.437 272.335 C 163.107 272.067,161.767 271.326,160.459 270.689 C 159.151 270.052,157.765 269.223,157.379 268.848 C 156.993 268.472,155.950 267.794,155.062 267.341 C 154.173 266.888,153.447 266.369,153.447 266.187 C 153.447 266.005,153.097 265.694,152.669 265.496 C 150.030 264.271,141.427 255.596,137.253 249.951 C 135.948 248.185,131.868 241.516,131.868 241.147 C 131.868 241.019,131.328 239.825,130.667 238.493 C 125.417 227.911,125.491 221.310,130.882 219.209 C 135.621 217.363,139.448 219.723,141.042 225.474 C 142.080 229.222,144.254 234.203,146.587 238.181 C 149.704 243.496,159.193 253.746,160.997 253.746 C 161.240 253.746,161.439 253.918,161.439 254.129 C 161.439 254.340,162.293 254.999,163.337 255.594 C 164.381 256.189,165.594 256.983,166.034 257.359 C 167.080 258.252,174.882 262.013,176.424 262.368 C 177.083 262.519,178.354 262.969,179.249 263.367 C 184.604 265.749,205.005 267.008,212.388 265.412 C 217.152 264.382,219.988 263.650,220.380 263.350 C 220.599 263.181,221.768 262.728,222.977 262.344 C 225.599 261.511,232.662 258.014,234.403 256.687 C 235.083 256.168,235.818 255.744,236.035 255.744 C 236.252 255.744,236.955 255.210,237.596 254.557 C 238.237 253.903,238.949 253.364,239.178 253.358 C 240.002 253.336,249.059 244.131,250.394 241.958 C 250.799 241.299,251.255 240.668,251.406 240.556 C 251.686 240.351,253.912 236.566,255.047 234.366 C 256.081 232.362,256.943 230.176,256.943 229.557 C 256.943 229.235,257.096 228.971,257.283 228.971 C 257.471 228.971,257.933 227.757,258.312 226.274 C 260.020 219.581,260.041 219.542,262.959 217.612 C 265.384 216.007,267.703 215.939,269.770 217.411 " stroke="none" fill="#00bf6f" fill-rule="evenodd"></path><path id="path3" d="" stroke="none" fill="#00ff00" fill-rule="evenodd"></path><path id="path4" d="" stroke="none" fill="#00ffff" fill-rule="evenodd"></path></g></svg>
